X: 22037
T: Knife In My Pocket
R: reel
M: 4/4
K: Edorian
E2 ED E2 B2|dcBA B2 G2|E2 ED E2 B2|dcBA B3e|
eBBd dBBA|GEFG A2 GF|E2 ED E2 B2|AGFG E3|

